images/icons/people-alt_24x24.svg

<svg xmlns="http://www.w3.org/2000/svg" enable-background="new 0 0 24 24" height="24" viewBox="0 0 24 24" width="24"><g><rect fill="none" height="24" width="24"/></g><g><g/><g><path d="M16.67,13.13C18.04,14.06,19,15.32,19,17v3h4v-3C23,14.82,19.43,13.53,16.67,13.13z"/><path d="M15,12c2.21,0,4-1.79,4-4c0-2.21-1.79-4-4-4c-0.47,0-0.91,0.1-1.33,0.24C14.5,5.27,15,6.58,15,8s-0.5,2.73-1.33,3.76 C14.09,11.9,14.53,12,15,12z"/><path d="M9,12c2.21,0,4-1.79,4-4c0-2.21-1.79-4-4-4S5,5.79,5,8C5,10.21,6.79,12,9,12z M9,6c1.1,0,2,0.9,2,2c0,1.1-0.9,2-2,2 S7,9.1,7,8C7,6.9,7.9,6,9,6z"/><path d="M9,13c-2.67,0-8,1.34-8,4v3h16v-3C17,14.34,11.67,13,9,13z M15,18H3l0-0.99C3.2,16.29,6.3,15,9,15s5.8,1.29,6,2V18z"/></g></g></svg>

<svg width="24" height="24" viewBox="0 0 24 24" fill="none" xmlns="http://www.w3.org/2000/svg">
<path d="M16.67 13.13C18.04 14.06 19 15.32 19 17V20H23V17C23 14.82 19.43 13.53 16.67 13.13Z" fill="#333333"/>
<path d="M15 12C17.21 12 19 10.21 19 8C19 5.79 17.21 4 15 4C14.53 4 14.09 4.1 13.67 4.24C14.5 5.27 15 6.58 15 8C15 9.42 14.5 10.73 13.67 11.76C14.09 11.9 14.53 12 15 12Z" fill="#333333"/>
<path d="M9 12C11.21 12 13 10.21 13 8C13 5.79 11.21 4 9 4C6.79 4 5 5.79 5 8C5 10.21 6.79 12 9 12ZM9 6C10.1 6 11 6.9 11 8C11 9.1 10.1 10 9 10C7.9 10 7 9.1 7 8C7 6.9 7.9 6 9 6Z" fill="#333333"/>
<path d="M9 13C6.33 13 1 14.34 1 17V20H17V17C17 14.34 11.67 13 9 13ZM15 18H3V17.01C3.2 16.29 6.3 15 9 15C11.7 15 14.8 16.29 15 17V18Z" fill="#333333"/>
</svg>
